X: 16260
T: Gremlin
R: jig
M: 6/8
K: Dminor
|:DAF GFE|A,FE DA,C|DCD EDE|FEF GcB|
AFA GFE|DFD EDE|FEF GcB|1 Adc d2F:|2 Adc dFG||
|:A2A BAG|ADD D2E|F2F FED|G3 GFG|
A2A BAG|Adc d2e|fed Adc|1 Adc dFG:|2 Adc d2F||

